src/assets/bold/lm-building-bold.svg

<svg width="24" height="24" viewBox="0 0 24 24" fill="none" xmlns="http://www.w3.org/2000/svg" fill="currentColor">
<path d="M22.75 20.0011H21.25V9.50107C21.25 9.10107 21.09 8.72107 20.81 8.44107C20.53 8.16107 20.15 8.00107 19.75 8.00107H15.03V3.50107C15.03 3.23107 14.96 2.96107 14.82 2.73107C14.68 2.50107 14.48 2.31107 14.24 2.18107C14 2.05107 13.73 1.99107 13.46 2.00107C13.19 2.01107 12.93 2.10107 12.7 2.25107L3.92 7.25107C3.71 7.39107 3.55 7.57107 3.43 7.79107C3.31 8.01107 3.25 8.25107 3.25 8.50107V20.0011H1.75C1.55 20.0011 1.36 20.0811 1.22 20.2211C1.08 20.3611 1 20.5511 1 20.7511C1 20.9511 1.08 21.1411 1.22 21.2811C1.36 21.4211 1.55 21.5011 1.75 21.5011H22.75C22.95 21.5011 23.14 21.4211 23.28 21.2811C23.42 21.1411 23.5 20.9511 23.5 20.7511C23.5 20.5511 23.42 20.3611 23.28 20.2211C23.14 20.0811 22.95 20.0011 22.75 20.0011ZM19.75 9.50107V20.0011H15.03V9.50107H19.75ZM4.75 8.50107L13.53 3.50107V20.0011H4.75V8.50107Z" fill="black"/>
<path d="M11.1 12.2611H7.18C6.77 12.2611 6.43 11.9211 6.43 11.5111C6.43 11.1011 6.77 10.7611 7.18 10.7611H11.1C11.51 10.7611 11.85 11.1011 11.85 11.5111C11.85 11.9211 11.51 12.2611 11.1 12.2611Z" fill="black"/>
<path d="M11.1 15.3111H7.18C6.77 15.3111 6.43 14.9711 6.43 14.5611C6.43 14.1511 6.77 13.8111 7.18 13.8111H11.1C11.51 13.8111 11.85 14.1511 11.85 14.5611C11.85 14.9711 11.51 15.3111 11.1 15.3111Z" fill="black"/>
<path d="M11.1 18.4711H7.18C6.77 18.4711 6.43 18.1311 6.43 17.7211C6.43 17.3111 6.77 16.9711 7.18 16.9711H11.1C11.51 16.9711 11.85 17.3111 11.85 17.7211C11.85 18.1311 11.51 18.4711 11.1 18.4711Z" fill="black"/>
</svg>

<svg xmlns="http://www.w3.org/2000/svg" width="24" height="24" fill="currentColor" viewBox="0 0 24 24">
  <path d="M22.75 20.001h-1.5v-10.5a1.499 1.499 0 0 0-1.5-1.5h-4.72v-4.5a1.486 1.486 0 0 0-.79-1.32 1.494 1.494 0 0 0-1.54.07l-8.78 5c-.21.14-.37.32-.49.54-.12.22-.18.46-.18.71v11.5h-1.5a.75.75 0 0 0 0 1.5h21a.75.75 0 0 0 0-1.5Zm-3-10.5v10.5h-4.72v-10.5h4.72Zm-15-1 8.78-5v16.5H4.75v-11.5Z"/>
  <path d="M11.1 12.261H7.18c-.41 0-.75-.34-.75-.75s.34-.75.75-.75h3.92c.41 0 .75.34.75.75s-.34.75-.75.75Zm0 3.05H7.18c-.41 0-.75-.34-.75-.75s.34-.75.75-.75h3.92c.41 0 .75.34.75.75s-.34.75-.75.75Zm0 3.16H7.18c-.41 0-.75-.34-.75-.75s.34-.75.75-.75h3.92c.41 0 .75.34.75.75s-.34.75-.75.75Z"/>
</svg>
